preferences/24/preferences-system-network-ldap.svg

<!-- Created with Inkscape (http://www.inkscape.org/) -->
<svg xmlns:inkscape="http://www.inkscape.org/namespaces/inkscape" xmlns:sodipodi="http://sodipodi.sourceforge.net/DTD/sodipodi-0.dtd" xmlns:xlink="http://www.w3.org/1999/xlink" xmlns="http://www.w3.org/2000/svg" xmlns:svg="http://www.w3.org/2000/svg" width="24" height="24" version="1.1" viewBox="0 0 24 24" id="svg22" sodipodi:docname="preferences-system-network-ldap.svg" inkscape:version="1.1.2 (0a00cf5339, 2022-02-04)">
  <sodipodi:namedview id="namedview24" pagecolor="#ffffff" bordercolor="#666666" borderopacity="1.0" inkscape:showpageshadow="2" inkscape:pageopacity="0.0" inkscape:pagecheckerboard="0" inkscape:deskcolor="#d1d1d1" showgrid="false" inkscape:zoom="25.62" inkscape:cx="-2.0296643" inkscape:cy="16.783763" inkscape:window-width="3440" inkscape:window-height="1356" inkscape:window-x="0" inkscape:window-y="0" inkscape:window-maximized="1" inkscape:current-layer="svg22" inkscape:pageshadow="2"/>
  <defs id="defs12">
    <linearGradient inkscape:collect="always" id="linearGradient917">
      <stop style="stop-color:#000000;stop-opacity:0.99607843" offset="0" id="stop913"/>
      <stop style="stop-color:#353a3f;stop-opacity:0.99607843" offset="1" id="stop915"/>
    </linearGradient>
    <linearGradient id="linearGradient1005-3-3" x1="5.2535" x2="9.3823996" y1="15.383" y2="2.9421" gradientTransform="matrix(0.99999,0,0,0.99999,1.632,-0.61743)" gradientUnits="userSpaceOnUse">
      <stop stop-color="#fa8200" offset="0" id="stop2"/>
      <stop stop-color="#ff9600" offset=".36953" id="stop4"/>
      <stop stop-color="#ffb400" offset="1" id="stop6"/>
    </linearGradient>
    <filter id="filter4014" x="-0.062499933" y="-0.057692993" width="1.1249999" height="1.115386" color-interpolation-filters="sRGB">
      <feGaussianBlur stdDeviation="1.093751" id="feGaussianBlur9"/>
    </filter>
    <linearGradient inkscape:collect="always" xlink:href="#linearGradient3487" id="linearGradient3403" gradientUnits="userSpaceOnUse" x1="6.9491749" y1="4.5549412" x2="11.215498" y2="59.052471"/>
    <linearGradient id="linearGradient3487">
      <stop style="stop-color:#32373c;stop-opacity:1" offset="0" id="stop3481"/>
      <stop id="stop3483" offset="0.36804965" style="stop-color:#1a1a1a;stop-opacity:1"/>
      <stop style="stop-color:#31363b;stop-opacity:1" offset="1" id="stop3485"/>
    </linearGradient>
    <linearGradient inkscape:collect="always" xlink:href="#linearGradient20604" id="linearGradient20558" gradientUnits="userSpaceOnUse" x1="25.802212" y1="20.373846" x2="25.111048" y2="58.912758"/>
    <linearGradient id="linearGradient20604">
      <stop id="stop20598" offset="0" style="stop-color:#3d3d3d;stop-opacity:1"/>
      <stop style="stop-color:#000000;stop-opacity:1" offset="0.61772454" id="stop20600"/>
      <stop id="stop20602" offset="1" style="stop-color:#3d3d3d;stop-opacity:1"/>
    </linearGradient>
    <filter inkscape:collect="always" style="color-interpolation-filters:sRGB" id="filter20720" x="-0.017024755" y="-0.016457183" width="1.0340491" height="1.0329144">
      <feGaussianBlur inkscape:collect="always" stdDeviation="0.14745661" id="feGaussianBlur20722"/>
    </filter>
    <linearGradient gradientTransform="translate(0.36067797,-0.13016949)" xlink:href="#linearGradient4555" id="linearGradient4557" x1="43.499737" y1="64.011795" x2="44.141731" y2="0.30621234" gradientUnits="userSpaceOnUse"/>
    <linearGradient id="linearGradient4555">
      <stop style="stop-color:#141618;stop-opacity:1" offset="0" id="stop4551"/>
      <stop id="stop4559" offset="0.51820582" style="stop-color:#686868;stop-opacity:1"/>
      <stop style="stop-color:#31363b;stop-opacity:1" offset="1" id="stop4553"/>
    </linearGradient>
    <filter style="color-interpolation-filters:sRGB" id="filter4601" x="-0.030244762" width="1.0604895" y="-0.030100647" height="1.0602013">
      <feGaussianBlur stdDeviation="0.014790289" id="feGaussianBlur4603"/>
    </filter>
    <linearGradient inkscape:collect="always" xlink:href="#linearGradient917" id="linearGradient919" x1="7.400631" y1="41.743092" x2="33.063145" y2="7.1074457" gradientUnits="userSpaceOnUse" gradientTransform="matrix(0.44544652,0,0,0.44544652,0.41994587,0.35084375)"/>
    <linearGradient id="g" gradientUnits="userSpaceOnUse" x1="28" x2="28" y1="30" y2="2">
      <stop offset="0" stop-color="#997657" id="stop20"/>
      <stop offset="1" stop-color="#d4ba94" id="stop22"/>
    </linearGradient>
    <linearGradient id="h" gradientTransform="matrix(0.66667,0,0,16,-25.794,-199.679)" gradientUnits="userSpaceOnUse" x1="44.691002" x2="44.691002" y1="14.355" y2="12.605">
      <stop offset="0" stop-color="#433a35" id="stop25"/>
      <stop offset="1" stop-color="#6c5548" id="stop27"/>
    </linearGradient>
    <linearGradient id="c" gradientTransform="translate(0,-1)" gradientUnits="userSpaceOnUse" x1="4" x2="8" xlink:href="#e" y1="19" y2="23"/>
    <linearGradient id="i" gradientTransform="rotate(-45,-404.503,771.496)" gradientUnits="userSpaceOnUse" x1="432.711" x2="432.711" xlink:href="#e" y1="531.79102" y2="544.51898"/>
    <linearGradient id="e">
      <stop offset="0" id="stop14"/>
      <stop offset="1" stop-opacity="0" id="stop16"/>
    </linearGradient>
    <linearGradient id="d" gradientTransform="translate(0,-8)" gradientUnits="userSpaceOnUse" x1="4" x2="8" xlink:href="#e" y1="19" y2="23"/>
    <linearGradient id="f" gradientUnits="userSpaceOnUse" x1="3.9990001" x2="8" xlink:href="#e" y1="4" y2="8"/>
    <linearGradient id="a" gradientUnits="userSpaceOnUse" x1="15" x2="28" y1="13" y2="26">
      <stop offset="0" stop-color="#292c2f" id="stop2-3"/>
      <stop offset="1" stop-opacity="0" id="stop4-3"/>
    </linearGradient>
    <linearGradient id="b" gradientUnits="userSpaceOnUse" x1="26" x2="26" y1="20.999998" y2="7">
      <stop offset="0" stop-color="#31363b" id="stop7"/>
      <stop offset="1" stop-color="#4d4d4d" id="stop9"/>
    </linearGradient>
  </defs>
  <g transform="translate(1,1)">
    <rect style="display:inline;fill:url(#linearGradient919);fill-opacity:1;fill-rule:evenodd;stroke:none;stroke-width:0.413294;stroke-linejoin:round;stroke-miterlimit:7.8" id="rect1192" width="18.746439" height="19.025959" x="1.8288532" y="1.6954195" ry="0" inkscape:label="arriere"/>
    <g id="g986" transform="matrix(0.6384449,0,0,0.64263203,1.5698238,0.4046417)">
      <path d="M 4,2 H 28 V 30 H 4 Z" fill="url(#g)" id="path31" style="fill:url(#g)"/>
      <path d="m 4,29 h 24 v 1 H 4 Z" fill="#232629" opacity="0.6" id="path33"/>
      <path d="M 4,2 V 30 H 8 V 29 H 5 V 28 H 8 V 2 H 5 Z" fill="url(#h)" id="path35" style="fill:url(#h)"/>
      <path d="m 4,28 h 24 v 1 H 4 Z" fill="#c5cfd3" id="path37"/>
      <path d="m 4,27 h 24 v 1 H 4 Z" fill="#232629" opacity="0.4" id="path39"/>
      <path d="m 28,6 h 2 v 4 h -2 z" fill="#2ecc71" id="path41"/>
      <path d="m 28,12 h 2 v 4 h -2 z" fill="#2980b9" id="path43"/>
      <path d="m 28,18 h 2 v 4 h -2 z" fill="#da4453" id="path45"/>
      <circle cx="6" cy="21" fill="#232629" r="1" id="circle47"/>
      <circle cx="6" cy="14" fill="#232629" r="1" id="circle49"/>
      <path d="M 6.333,20 H 4 l 4,4 1.333,-1 z" fill="url(#c)" opacity="0.2" id="path51" style="fill:url(#c)"/>
      <path d="M 6.333,13 H 4 l 4,4 1.332,-1 z" fill="url(#d)" opacity="0.2" id="path55" style="fill:url(#d)"/>
      <circle cx="6" cy="7" fill="#232629" r="1" id="circle59"/>
      <path d="M 6.333,6 H 4 l 4,4 1.332,-1 z" fill="url(#f)" opacity="0.2" id="path61" style="fill:url(#f)"/>
      <path d="m 11,21 6,6 H 28 V 15.7534 L 20.1233,7.8767 18,7 15,10 15.8768,12.1232 18,14.2464 15,15 12,18 Z" fill="url(#a)" opacity="0.2" id="path65" style="fill:url(#a)"/>
      <path d="m 18,7 c -1.662,0 -3,1.3379999 -3,3 0,1.662 1.338,3 3,3 1.662,0 3,-1.338 3,-3 0,-1.6620001 -1.338,-3 -3,-3 z m 0,1 c 1.108,0 2,0.892 2,2 0,1.108 -0.892,2 -2,2 -1.108,0 -2,-0.892 -2,-2 0,-1.108 0.892,-2 2,-2 z m 0,6 c -3.878,0 -7,3.122 -7,7 h 7 7 c 0,-3.878 -3.122,-7 -7,-7 z m -0.04883,1 A 5.98,5.98 0 0 1 18,15 5.98,5.98 0 0 1 23.910156,20 H 18 12.089844 a 5.98,5.98 0 0 1 5.861328,-5 z" fill="url(#b)" id="path67" style="fill:url(#b)"/>
    </g>
    <path style="display:inline;mix-blend-mode:normal;fill:url(#linearGradient3403);fill-opacity:1;stroke:url(#linearGradient20558);stroke-width:1.16242;stroke-linecap:butt;stroke-linejoin:round;stroke-miterlimit:4;stroke-dasharray:none;stroke-opacity:1;filter:url(#filter20720)" d="M 4.7043071,3.9814882 4.6913695,60.80196 H 58.59546 l 1.022155,-2.866369 c 0,0 -23.87537,0.766388 -32.844441,-4.140386 C 16.257548,48.042344 11.401114,4.0978197 11.401114,4.0978197 Z" id="path1686" sodipodi:nodetypes="ccccscc" transform="matrix(0.33492219,0,0,0.33492219,0.46435897,0.36192929)" inkscape:label="folder"/>
    <rect style="display:inline;fill:none;fill-opacity:1;stroke:url(#linearGradient4557);stroke-width:3.71366;stroke-linejoin:round;stroke-miterlimit:7.8;stroke-dasharray:none;stroke-opacity:0.995146;filter:url(#filter4601)" id="rect4539" width="62.567089" height="62.866646" x="1.0323594" y="0.59551275" ry="6.2447233" rx="5.8029528" transform="matrix(0.31374933,0,0,0.31310984,1.0270826,1.0387051)" inkscape:label="contour"/>
  </g>
</svg>

<svg width="24" height="24" version="1.1" viewBox="0 0 24 24" xmlns="http://www.w3.org/2000/svg" xmlns:xlink="http://www.w3.org/1999/xlink">
<defs>
<linearGradient id="linearGradient3403" x1="6.9492" x2="11.215" y1="4.5549" y2="59.052" gradientUnits="userSpaceOnUse">
<stop style="stop-color:#32373c" offset="0"/>
<stop style="stop-color:#1a1a1a" offset=".36805"/>
<stop style="stop-color:#31363b" offset="1"/>
</linearGradient>
<linearGradient id="linearGradient20558" x1="25.802" x2="25.111" y1="20.374" y2="58.913" gradientUnits="userSpaceOnUse">
<stop style="stop-color:#3d3d3d" offset="0"/>
<stop offset=".61772"/>
<stop style="stop-color:#3d3d3d" offset="1"/>
</linearGradient>
<linearGradient id="linearGradient4557" x1="43.5" x2="44.142" y1="64.012" y2=".30621" gradientTransform="translate(.36068 -.13017)" gradientUnits="userSpaceOnUse">
<stop style="stop-color:#141618" offset="0"/>
<stop style="stop-color:#686868" offset=".51821"/>
<stop style="stop-color:#31363b" offset="1"/>
</linearGradient>
<linearGradient id="linearGradient919" x1="7.4006" x2="33.063" y1="41.743" y2="7.1074" gradientTransform="matrix(.44545 0 0 .44545 .41995 .35084)" gradientUnits="userSpaceOnUse">
<stop style="stop-opacity:.99608" offset="0"/>
<stop style="stop-color:#353a3f;stop-opacity:.99608" offset="1"/>
</linearGradient>
<linearGradient id="g" x1="28" x2="28" y1="30" y2="2" gradientUnits="userSpaceOnUse">
<stop stop-color="#997657" offset="0"/>
<stop stop-color="#d4ba94" offset="1"/>
</linearGradient>
<linearGradient id="h" x1="44.691" x2="44.691" y1="14.355" y2="12.605" gradientTransform="matrix(.66667 0 0 16 -25.794 -199.68)" gradientUnits="userSpaceOnUse">
<stop stop-color="#433a35" offset="0"/>
<stop stop-color="#6c5548" offset="1"/>
</linearGradient>
<linearGradient id="c" x1="4" x2="8" y1="19" y2="23" gradientTransform="translate(0,-1)" gradientUnits="userSpaceOnUse" xlink:href="#e"/>
<linearGradient id="e">
<stop offset="0"/>
<stop stop-opacity="0" offset="1"/>
</linearGradient>
<linearGradient id="d" x1="4" x2="8" y1="19" y2="23" gradientTransform="translate(0,-8)" gradientUnits="userSpaceOnUse" xlink:href="#e"/>
<linearGradient id="f" x1="3.999" x2="8" y1="4" y2="8" gradientUnits="userSpaceOnUse" xlink:href="#e"/>
<linearGradient id="a" x1="15" x2="28" y1="13" y2="26" gradientUnits="userSpaceOnUse">
<stop stop-color="#292c2f" offset="0"/>
<stop stop-opacity="0" offset="1"/>
</linearGradient>
<linearGradient id="b" x1="26" x2="26" y1="21" y2="7" gradientUnits="userSpaceOnUse">
<stop stop-color="#31363b" offset="0"/>
<stop stop-color="#4d4d4d" offset="1"/>
</linearGradient>
</defs>
<g transform="translate(1,1)">
<rect x="1.8289" y="1.6954" width="18.746" height="19.026" ry="0" style="fill-rule:evenodd;fill:url(#linearGradient919)"/>
<g transform="matrix(.63844 0 0 .64263 1.5698 .40464)">
<path d="m4 2h24v28h-24z" fill="url(#g)" style="fill:url(#g)"/>
<path d="m4 29h24v1h-24z" fill="#232629" opacity=".6"/>
<path d="m4 2v28h4v-1h-3v-1h3v-26h-3z" fill="url(#h)" style="fill:url(#h)"/>
<path d="m4 28h24v1h-24z" fill="#c5cfd3"/>
<path d="m4 27h24v1h-24z" fill="#232629" opacity=".4"/>
<path d="m28 6h2v4h-2z" fill="#2ecc71"/>
<path d="m28 12h2v4h-2z" fill="#2980b9"/>
<path d="m28 18h2v4h-2z" fill="#da4453"/>
<circle cx="6" cy="21" r="1" fill="#232629"/>
<circle cx="6" cy="14" r="1" fill="#232629"/>
<path d="m6.333 20h-2.333l4 4 1.333-1z" fill="url(#c)" opacity=".2" style="fill:url(#c)"/>
<path d="m6.333 13h-2.333l4 4 1.332-1z" fill="url(#d)" opacity=".2" style="fill:url(#d)"/>
<circle cx="6" cy="7" r="1" fill="#232629"/>
<path d="m6.333 6h-2.333l4 4 1.332-1z" fill="url(#f)" opacity=".2" style="fill:url(#f)"/>
<path d="m 11,21 6,6 H 28 V 15.7534 L 20.1233,7.8767 18,7 15,10 15.8768,12.1232 18,14.2464 15,15 12,18 Z" fill="url(#a)" opacity=".2" style="fill:url(#a)"/>
<path d="m18 7c-1.662 0-3 1.338-3 3 0 1.662 1.338 3 3 3s3-1.338 3-3c0-1.662-1.338-3-3-3zm0 1c1.108 0 2 0.892 2 2s-0.892 2-2 2-2-0.892-2-2 0.892-2 2-2zm0 6c-3.878 0-7 3.122-7 7h14c0-3.878-3.122-7-7-7zm-0.04883 1a5.98 5.98 0 0 1 0.04883 0 5.98 5.98 0 0 1 5.9102 5h-11.82a5.98 5.98 0 0 1 5.8613-5z" fill="url(#b)" style="fill:url(#b)"/>
</g>
<path transform="matrix(.33492 0 0 .33492 .46436 .36193)" d="m4.7043 3.9815-0.012938 56.82h53.904l1.0222-2.8664s-23.875 0.76639-32.844-4.1404c-10.516-5.7529-15.372-49.697-15.372-49.697z" style="fill:url(#linearGradient3403);mix-blend-mode:normal;stroke-linejoin:round;stroke-width:1.1624;stroke:url(#linearGradient20558)"/>
<rect transform="matrix(.31375 0 0 .31311 1.0271 1.0387)" x="1.0324" y=".59551" width="62.567" height="62.867" rx="5.803" ry="6.2447" style="fill:none;stroke-linejoin:round;stroke-miterlimit:7.8;stroke-opacity:.99515;stroke-width:3.7137;stroke:url(#linearGradient4557)"/>
</g>
</svg>
